icons/arrow-reverse-longv.svg

<svg width="24" height="24" viewBox="0 0 24 24" fill="none" xmlns="http://www.w3.org/2000/svg">
<path fill-rule="evenodd" clip-rule="evenodd" d="M8.80002 6.9607L11.4197 9.58038C11.7126 9.87327 12.1875 9.87327 12.4804 9.58038C12.7732 9.28749 12.7732 8.81261 12.4804 8.51972L9.08035 5.11972C8.80984 4.8492 8.45071 4.67505 8.05002 4.67505C7.64934 4.67505 7.29021 4.8492 7.01969 5.11972L3.61969 8.51972C3.3268 8.81261 3.3268 9.28749 3.61969 9.58038C3.91259 9.87327 4.38746 9.87327 4.68035 9.58038L7.30002 6.96072V18.5501C7.30002 18.9643 7.6358 19.3001 8.05002 19.3001C8.46423 19.3001 8.80002 18.9643 8.80002 18.5501V6.9607ZM15.95 4.70006C16.3642 4.70006 16.7 5.03584 16.7 5.45006V17.0394L19.3197 14.4197C19.6126 14.1268 20.0875 14.1268 20.3803 14.4197C20.6732 14.7126 20.6732 15.1875 20.3803 15.4804L16.9803 18.8804C16.7098 19.1509 16.3507 19.3251 15.95 19.3251C15.5493 19.3251 15.1902 19.1509 14.9197 18.8804L11.5197 15.4804C11.2268 15.1875 11.2268 14.7126 11.5197 14.4197C11.8126 14.1268 12.2875 14.1268 12.5803 14.4197L15.2 17.0394V5.45006C15.2 5.03584 15.5358 4.70006 15.95 4.70006Z" fill="black"/>
</svg>

<svg xmlns="http://www.w3.org/2000/svg" fill="none" viewBox="0 0 24 24">
  <path fill="#000" fill-rule="evenodd" d="m8.8 6.96 2.62 2.62a.75.75 0 0 0 1.06-1.06l-3.4-3.4c-.27-.27-.63-.445-1.03-.445s-.76.174-1.03.445l-3.4 3.4a.75.75 0 0 0 1.06 1.06L7.3 6.96v11.59a.75.75 0 0 0 1.5 0V6.96Zm7.15-2.26a.75.75 0 0 1 .75.75v11.59l2.62-2.62a.75.75 0 1 1 1.06 1.06l-3.4 3.4c-.27.27-.63.445-1.03.445s-.76-.174-1.03-.445l-3.4-3.4a.75.75 0 0 1 1.06-1.06l2.62 2.62V5.45a.75.75 0 0 1 .75-.75Z" clip-rule="evenodd"/>
</svg>
